static/img/kroki/b28b5aa8e3c7792a185d98e485a13876.svg

<?xml version="1.0" encoding="us-ascii" standalone="no"?><svg xmlns="http://www.w3.org/2000/svg" xmlns:xlink="http://www.w3.org/1999/xlink" contentStyleType="text/css" height="732px" preserveAspectRatio="none" style="width:447px;height:732px;" version="1.1" viewBox="0 0 447 732" width="447px" zoomAndPan="magnify"><defs/><g><!--class kubernetes_resource--><g id="elem_kubernetes_resource"><rect codeLine="22" fill="#3D176E" height="126.6797" id="kubernetes_resource" rx="2.5" ry="2.5" style="stroke:#000D19;stroke-width:0.5;" width="239" x="104" y="438.76"/><ellipse cx="129.35" cy="458.6545" fill="#ADD1B2" rx="11" ry="11" style="stroke:#181818;stroke-width:1.0;"/><path d="M132.3188,464.2952 Q131.7406,464.592 131.1,464.7327 Q130.4594,464.8889 129.7563,464.8889 Q127.2563,464.8889 125.9281,463.2483 Q124.6156,461.592 124.6156,458.467 Q124.6156,455.342 125.9281,453.6858 Q127.2563,452.0295 129.7563,452.0295 Q130.4594,452.0295 131.1,452.1858 Q131.7563,452.342 132.3188,452.6389 L132.3188,455.3577 Q131.6938,454.7795 131.1,454.5139 Q130.5063,454.2327 129.8813,454.2327 Q128.5375,454.2327 127.85,455.3108 Q127.1625,456.3733 127.1625,458.467 Q127.1625,460.5608 127.85,461.6389 Q128.5375,462.7014 129.8813,462.7014 Q130.5063,462.7014 131.1,462.4358 Q131.6938,462.1545 132.3188,461.5764 L132.3188,464.2952 Z " fill="#000000"/><text fill="#D9B8FF" font-family="Helvetica" font-size="17" lengthAdjust="spacing" textLength="174" x="150.65" y="464.5398">kubernetes_resource</text><line style="stroke:#000D19;stroke-width:0.5;" x1="105" x2="342" y1="478.5491" y2="478.5491"/><text fill="#D9B8FF" font-family="sans-serif" font-size="14" font-weight="bold" lengthAdjust="spacing" textLength="46" x="115" y="500.5442">labels</text><text fill="#D9B8FF" font-family="sans-serif" font-size="14" lengthAdjust="spacing" textLength="171" x="161" y="500.5442">: dictionary[string, string]</text><text fill="#D9B8FF" font-family="sans-serif" font-size="14" font-weight="bold" lengthAdjust="spacing" textLength="90" x="115" y="526.8411">namespace</text><text fill="#D9B8FF" font-family="sans-serif" font-size="14" lengthAdjust="spacing" textLength="48" x="205" y="526.8411">: string</text><text fill="#D9B8FF" font-family="sans-serif" font-size="14" font-weight="bold" lengthAdjust="spacing" textLength="138" x="115" y="553.1379">resource_version</text><text fill="#D9B8FF" font-family="sans-serif" font-size="14" lengthAdjust="spacing" textLength="48" x="253" y="553.1379">: string</text></g><!--class kubernetes_validating_webhook_configuration--><g id="elem_kubernetes_validating_webhook_configuration"><rect codeLine="27" fill="#3D176E" height="39.7891" id="kubernetes_validating_webhook_configuration" rx="2.5" ry="2.5" style="stroke:#000D19;stroke-width:0.5;" width="433" x="7" y="686.44"/><ellipse cx="22" cy="706.3345" fill="#ADD1B2" rx="11" ry="11" style="stroke:#181818;stroke-width:1.0;"/><path d="M24.9688,711.9752 Q24.3906,712.272 23.75,712.4127 Q23.1094,712.5689 22.4063,712.5689 Q19.9063,712.5689 18.5781,710.9283 Q17.2656,709.272 17.2656,706.147 Q17.2656,703.022 18.5781,701.3658 Q19.9063,699.7095 22.4063,699.7095 Q23.1094,699.7095 23.75,699.8658 Q24.4063,700.022 24.9688,700.3189 L24.9688,703.0377 Q24.3438,702.4595 23.75,702.1939 Q23.1563,701.9127 22.5313,701.9127 Q21.1875,701.9127 20.5,702.9908 Q19.8125,704.0533 19.8125,706.147 Q19.8125,708.2408 20.5,709.3189 Q21.1875,710.3814 22.5313,710.3814 Q23.1563,710.3814 23.75,710.1158 Q24.3438,709.8345 24.9688,709.2564 L24.9688,711.9752 Z " fill="#000000"/><text fill="#D9B8FF" font-family="Helvetica" font-size="17" lengthAdjust="spacing" textLength="391" x="41" y="712.2198">kubernetes_validating_webhook_configuration</text></g><!--class resource--><g id="elem_resource"><rect codeLine="29" fill="#3D176E" height="310.7578" id="resource" rx="2.5" ry="2.5" style="stroke:#000D19;stroke-width:0.5;" width="227" x="110" y="7"/><ellipse cx="178.75" cy="26.8945" fill="#ADD1B2" rx="11" ry="11" style="stroke:#181818;stroke-width:1.0;"/><path d="M181.7188,32.5352 Q181.1406,32.832 180.5,32.9727 Q179.8594,33.1289 179.1563,33.1289 Q176.6563,33.1289 175.3281,31.4883 Q174.0156,29.832 174.0156,26.707 Q174.0156,23.582 175.3281,21.9258 Q176.6563,20.2695 179.1563,20.2695 Q179.8594,20.2695 180.5,20.4258 Q181.1563,20.582 181.7188,20.8789 L181.7188,23.5977 Q181.0938,23.0195 180.5,22.7539 Q179.9063,22.4727 179.2813,22.4727 Q177.9375,22.4727 177.25,23.5508 Q176.5625,24.6133 176.5625,26.707 Q176.5625,28.8008 177.25,29.8789 Q177.9375,30.9414 179.2813,30.9414 Q179.9063,30.9414 180.5,30.6758 Q181.0938,30.3945 181.7188,29.8164 L181.7188,32.5352 Z " fill="#000000"/><text fill="#D9B8FF" font-family="Helvetica" font-size="17" lengthAdjust="spacing" textLength="71" x="204.25" y="32.7798">resource</text><line style="stroke:#000D19;stroke-width:0.5;" x1="111" x2="336" y1="46.7891" y2="46.7891"/><text fill="#D9B8FF" font-family="sans-serif" font-size="14" font-weight="bold" lengthAdjust="spacing" textLength="29" x="121" y="68.7842">age</text><text fill="#D9B8FF" font-family="sans-serif" font-size="14" lengthAdjust="spacing" textLength="66" x="150" y="68.7842">: duration</text><text fill="#D9B8FF" font-family="sans-serif" font-size="14" font-weight="bold" lengthAdjust="spacing" textLength="43" x="121" y="95.0811">atime</text><text fill="#D9B8FF" font-family="sans-serif" font-size="14" lengthAdjust="spacing" textLength="70" x="164" y="95.0811">: datetime</text><text fill="#D9B8FF" font-family="sans-serif" font-size="14" font-weight="bold" lengthAdjust="spacing" textLength="43" x="121" y="121.3779">ctime</text><text fill="#D9B8FF" font-family="sans-serif" font-size="14" lengthAdjust="spacing" textLength="70" x="164" y="121.3779">: datetime</text><text fill="#D9B8FF" font-family="sans-serif" font-size="14" font-weight="bold" lengthAdjust="spacing" textLength="14" x="121" y="147.6748">id</text><text fill="#D9B8FF" font-family="sans-serif" font-size="14" lengthAdjust="spacing" textLength="48" x="135" y="147.6748">: string</text><text fill="#D9B8FF" font-family="sans-serif" font-size="14" font-weight="bold" lengthAdjust="spacing" textLength="33" x="121" y="173.9717">kind</text><text fill="#D9B8FF" font-family="sans-serif" font-size="14" lengthAdjust="spacing" textLength="48" x="154" y="173.9717">: string</text><text fill="#D9B8FF" font-family="sans-serif" font-size="14" font-weight="bold" lengthAdjust="spacing" textLength="90" x="121" y="200.2686">last_access</text><text fill="#D9B8FF" font-family="sans-serif" font-size="14" lengthAdjust="spacing" textLength="66" x="211" y="200.2686">: duration</text><text fill="#D9B8FF" font-family="sans-serif" font-size="14" font-weight="bold" lengthAdjust="spacing" textLength="90" x="121" y="226.5654">last_update</text><text fill="#D9B8FF" font-family="sans-serif" font-size="14" lengthAdjust="spacing" textLength="66" x="211" y="226.5654">: duration</text><text fill="#D9B8FF" font-family="sans-serif" font-size="14" font-weight="bold" lengthAdjust="spacing" textLength="48" x="121" y="252.8623">mtime</text><text fill="#D9B8FF" font-family="sans-serif" font-size="14" lengthAdjust="spacing" textLength="70" x="169" y="252.8623">: datetime</text><text fill="#D9B8FF" font-family="sans-serif" font-size="14" font-weight="bold" lengthAdjust="spacing" textLength="43" x="121" y="279.1592">name</text><text fill="#D9B8FF" font-family="sans-serif" font-size="14" lengthAdjust="spacing" textLength="48" x="164" y="279.1592">: string</text><text fill="#D9B8FF" font-family="sans-serif" font-size="14" font-weight="bold" lengthAdjust="spacing" textLength="34" x="121" y="305.4561">tags</text><text fill="#D9B8FF" font-family="sans-serif" font-size="14" lengthAdjust="spacing" textLength="171" x="155" y="305.4561">: dictionary[string, string]</text></g><!--reverse link resource to kubernetes_resource--><g id="link_resource_kubernetes_resource"><path codeLine="41" d="M223.5,338.9 C223.5,374.57 223.5,409.83 223.5,438.32 " fill="none" id="resource-backto-kubernetes_resource" style="stroke:#FFAF37;stroke-width:2.0;"/><polygon fill="none" points="216.5,338.91,223.5,318.91,230.5,338.91,216.5,338.91" style="stroke:#FFAF37;stroke-width:2.0;"/></g><!--reverse link kubernetes_resource to kubernetes_validating_webhook_configuration--><g id="link_kubernetes_resource_kubernetes_validating_webhook_configuration"><path codeLine="42" d="M223.5,586.56 C223.5,623.36 223.5,663.39 223.5,686.31 " fill="none" id="kubernetes_resource-backto-kubernetes_validating_webhook_configuration" style="stroke:#FFAF37;stroke-width:2.0;"/><polygon fill="none" points="216.5,586.7,223.5,566.7,230.5,586.7,216.5,586.7" style="stroke:#FFAF37;stroke-width:2.0;"/></g><!--SRC=[XPDDIyD048Rl_HKBteg5rgAruaKBefSYwaqaJ7OdwP9ajynEMkh7VtUtiP8lxIdXdIVplZExMMc50eirxqI1HOpa1YxJPWq4XRWXijk5pIs9aoI1P3fh5- -iuQF04WeKzvXlaBM4Dl6oqZ8pw9mugvLkGMOfsTAegZqJ6ETBQBX6BN9mxeQPT5moriAeUNoP96sotVHagYQp2-nWbXJI3p8UZzLataQEMlqxzo_nhDzHJEfBMrh6JioEnPxwDsKWQY4xWnxgVsPy1AMqISLvJNkgCf51QkZFAr1s6-W4SbUtSOo4bdThN7IcmlcbIcQzyCDVi0oR4rdfBwf1HXSHEbkIHF4n60vpY35tm-6LK5gojWPez-hyxJ3fgQYURnupVcP_boG6ifAzUkWKRVnFuB-j5R-wlXl8jGBsrMYByShQB9BM93ej2OApptFugX4Hqhsh-i62mhgeD60CxrwJFPfMZRX-Qqt1Ut44Kle_gUMmhvJhqAjLANfymdOQZHdIOplz6lmEUVqv6etwJcZGTseT-jXUlm40]--></g></svg>

<svg xmlns="http://www.w3.org/2000/svg" width="447" height="732" preserveAspectRatio="none" style="width:447px;height:732px"><rect width="239" height="126.68" x="104" y="438.76" fill="#3D176E" rx="2.5" ry="2.5" style="stroke:#000d19;stroke-width:.5"/><circle cx="129.35" cy="458.654" r="11" fill="#ADD1B2" style="stroke:#181818;stroke-width:1"/><path d="M132.319 464.295q-.578.297-1.219.438-.64.156-1.344.156-2.5 0-3.828-1.64-1.312-1.657-1.312-4.782t1.312-4.781q1.328-1.656 3.828-1.656.703 0 1.344.156.656.156 1.219.453v2.719q-.625-.579-1.219-.844-.594-.281-1.219-.281-1.344 0-2.031 1.078-.688 1.062-.688 3.156 0 2.094.688 3.172.688 1.062 2.031 1.062.625 0 1.219-.265.594-.281 1.219-.86v2.72Z"/><text x="150.65" y="464.54" fill="#D9B8FF" font-family="Helvetica" font-size="17" textLength="174">kubernetes_resource</text><path d="M105 478.549h237" style="stroke:#000d19;stroke-width:.5"/><text x="115" y="500.544" fill="#D9B8FF" font-family="sans-serif" font-size="14" font-weight="bold" textLength="46">labels</text><text x="161" y="500.544" fill="#D9B8FF" font-family="sans-serif" font-size="14" textLength="171">: dictionary[string, string]</text><text x="115" y="526.841" fill="#D9B8FF" font-family="sans-serif" font-size="14" font-weight="bold" textLength="90">namespace</text><text x="205" y="526.841" fill="#D9B8FF" font-family="sans-serif" font-size="14" textLength="48">: string</text><text x="115" y="553.138" fill="#D9B8FF" font-family="sans-serif" font-size="14" font-weight="bold" textLength="138">resource_version</text><text x="253" y="553.138" fill="#D9B8FF" font-family="sans-serif" font-size="14" textLength="48">: string</text><rect width="433" height="39.789" x="7" y="686.44" fill="#3D176E" rx="2.5" ry="2.5" style="stroke:#000d19;stroke-width:.5"/><circle cx="22" cy="706.335" r="11" fill="#ADD1B2" style="stroke:#181818;stroke-width:1"/><path d="M24.969 711.975q-.578.297-1.219.438-.64.156-1.344.156-2.5 0-3.828-1.64-1.312-1.657-1.312-4.782t1.312-4.781q1.328-1.656 3.828-1.656.703 0 1.344.156.656.156 1.219.453v2.719q-.625-.578-1.219-.844-.594-.281-1.219-.281-1.343 0-2.031 1.078-.688 1.062-.688 3.156 0 2.094.688 3.172.688 1.062 2.031 1.062.625 0 1.219-.265.594-.281 1.219-.86v2.72Z"/><text x="41" y="712.22" fill="#D9B8FF" font-family="Helvetica" font-size="17" textLength="391">kubernetes_validating_webhook_configuration</text><rect width="227" height="310.758" x="110" y="7" fill="#3D176E" rx="2.5" ry="2.5" style="stroke:#000d19;stroke-width:.5"/><circle cx="178.75" cy="26.895" r="11" fill="#ADD1B2" style="stroke:#181818;stroke-width:1"/><path d="M181.719 32.535q-.578.297-1.219.438-.64.156-1.344.156-2.5 0-3.828-1.64-1.312-1.657-1.312-4.782t1.312-4.781q1.328-1.656 3.828-1.656.703 0 1.344.156.656.156 1.219.453v2.719q-.625-.578-1.219-.844-.594-.281-1.219-.281-1.344 0-2.031 1.078-.688 1.062-.688 3.156 0 2.094.688 3.172.688 1.062 2.031 1.062.625 0 1.219-.265.594-.281 1.219-.86v2.72Z"/><text x="204.25" y="32.78" fill="#D9B8FF" font-family="Helvetica" font-size="17" textLength="71">resource</text><path d="M111 46.789h225" style="stroke:#000d19;stroke-width:.5"/><text x="121" y="68.784" fill="#D9B8FF" font-family="sans-serif" font-size="14" font-weight="bold" textLength="29">age</text><text x="150" y="68.784" fill="#D9B8FF" font-family="sans-serif" font-size="14" textLength="66">: duration</text><text x="121" y="95.081" fill="#D9B8FF" font-family="sans-serif" font-size="14" font-weight="bold" textLength="43">atime</text><text x="164" y="95.081" fill="#D9B8FF" font-family="sans-serif" font-size="14" textLength="70">: datetime</text><text x="121" y="121.378" fill="#D9B8FF" font-family="sans-serif" font-size="14" font-weight="bold" textLength="43">ctime</text><text x="164" y="121.378" fill="#D9B8FF" font-family="sans-serif" font-size="14" textLength="70">: datetime</text><text x="121" y="147.675" fill="#D9B8FF" font-family="sans-serif" font-size="14" font-weight="bold" textLength="14">id</text><text x="135" y="147.675" fill="#D9B8FF" font-family="sans-serif" font-size="14" textLength="48">: string</text><text x="121" y="173.972" fill="#D9B8FF" font-family="sans-serif" font-size="14" font-weight="bold" textLength="33">kind</text><text x="154" y="173.972" fill="#D9B8FF" font-family="sans-serif" font-size="14" textLength="48">: string</text><text x="121" y="200.269" fill="#D9B8FF" font-family="sans-serif" font-size="14" font-weight="bold" textLength="90">last_access</text><text x="211" y="200.269" fill="#D9B8FF" font-family="sans-serif" font-size="14" textLength="66">: duration</text><text x="121" y="226.565" fill="#D9B8FF" font-family="sans-serif" font-size="14" font-weight="bold" textLength="90">last_update</text><text x="211" y="226.565" fill="#D9B8FF" font-family="sans-serif" font-size="14" textLength="66">: duration</text><text x="121" y="252.862" fill="#D9B8FF" font-family="sans-serif" font-size="14" font-weight="bold" textLength="48">mtime</text><text x="169" y="252.862" fill="#D9B8FF" font-family="sans-serif" font-size="14" textLength="70">: datetime</text><text x="121" y="279.159" fill="#D9B8FF" font-family="sans-serif" font-size="14" font-weight="bold" textLength="43">name</text><text x="164" y="279.159" fill="#D9B8FF" font-family="sans-serif" font-size="14" textLength="48">: string</text><text x="121" y="305.456" fill="#D9B8FF" font-family="sans-serif" font-size="14" font-weight="bold" textLength="34">tags</text><text x="155" y="305.456" fill="#D9B8FF" font-family="sans-serif" font-size="14" textLength="171">: dictionary[string, string]</text><path fill="none" d="M223.5 338.9v99.42m-7-99.41 7-20 7 20h-14zm7 247.65v99.75m-7-99.61 7-20 7 20h-14z" style="stroke:#ffaf37;stroke-width:2"/></svg>
